X:6367
T:Sweeney's Buttermilk
O:england
M:4/4
L:1/8
C:Brendan McGlinchey
S:Brendan McGlinchey
K:A
FBBB FBBB| dcBc AEEE |FBBB ABce | afec Baga |f2 ec
fecf| ecBc BAFE | FBBB ABce |1 afec B4 :|2 faec B2 BA |
:FBdc BFFF | EAcB AEEE | FBdc (3Bcd fb| afec dDcD |
Bcde fBBg| afec ABce | fe (3fga bafb | afec B2 BA :|


